!!!OTL: AN DER SAALE FERNEM STRANDE
!!!ARE: Europa, Mitteleuropa, Deutschland
!!!SCT: F0547
!!!YEM: Copyright 1995, estate of Helmut Schaffrath.
**kern
*ICvox
*Ivox
*M3/4
*k[f#]
*G:
{8.g
16a
=1
4b
4b
8a
8g
=2
8.a
16b
4a}
{8g
8a
=3
8.b
16cc
4dd
4f#
=4
4g
4r}
{8.ee
16dd
=5
8.dd
16cc#
8cc
8d
8f#
8a
=6
8.g
16b
4b}
{8.ee
16dd
=7
8.dd
16cc#
8cc
8d
8f#
8a
=8
8.g
16b
4b}
{8.g
16a
=9
8.b
16dd
4dd
8.cc
16f#
=10
2g}
==
!!!AGN: Studenten - Lied, Abschied
!!!ONB: ESAC (Essen Associative Code) Database: FINK
!!!AMT: simple triple
!!!AIN: vox
!!!EED: Helmut Schaffrath
!!!EEV: 1.0
*-
